X: 1
T: Ann-Marie Morrison of Borve
C: Bill Black
R: jig
Z: 2014 John Chambers <jc:trillian.mit.edu>
S: PDF image of set for The Ferry Louper, from George Meikle, 2012
M: 6/8
L: 1/8
K: A
E |\
"A"A2A "E7"GAB | "A"AGF "A7"EDC | "D"D2F "F#7"EDC | "Bm"DB,B, B,2E |\
"A"A2A "E7"GAB | "F#m"AGF "E7"EFG | "D"A2d "E7"cdB | "A"cAA "(E7)"A2 :|
ye |\
"A"cec "E7"dcB | "F#m"Aag "A7"aec | "D"d2f "A"eac | "Bm"dBB "E7"Bcd |\
"A"cec "E7"dcB | "A"Aag "A7"aec | "Bm"d2B "E7"G2e | "A"cAA "E7"Acd ||
y2 |\
"A"cec "E7"dcB | "F#m"Aag "A7"aec | "D"d2f "A"eac | "Bm"dBB "E7"Bcd |\
"A"cde "Bm"def | "A"efg "D"fga | "E7"g2e dcB | "A"cAA A2 |]
